Adwaita++/actions/symbolic/view-fullscreen-symbolic.svg

<svg height="16" width="16" xmlns="http://www.w3.org/2000/svg">
  <g fill="#474747">
    <path d="m1.984 8.986a1 1 0 0 0 -.984 1.014v4a1 1 0 0 0 1 1h4a1 1 0 1 0 0-2h-3v-3a1 1 0 0 0 -1.016-1.014z"/>
    <path d="m6.48 8.49a1 1 0 0 0 -.687.303l-4.5 4.5a1 1 0 1 0 1.414 1.414l4.5-4.5a1 1 0 0 0 -.727-1.717z"/>
    <path d="m1 14h1v1h-1z"/>
    <path d="m10 1a1 1 0 1 0 0 2h3v3a1 1 0 1 0 2 0v-4a1 1 0 0 0 -1-1z"/>
    <path d="m14 1h1v1h-1z"/>
    <path d="m13.984.99a1 1 0 0 0 -.69.301l-4.5 4.469a1 1 0 1 0 1.411 1.418l4.5-4.469a1 1 0 0 0 -.72-1.719z"/>
    <path d="m1 9h1v1h-1zm5 5h1v1h-1zm8-8h1v1h-1zm-5-5h1v1h-1z"/>
  </g>
</svg>

<svg xmlns="http://www.w3.org/2000/svg" width="16" height="16">
    <g color="#000" fill="#474747">
        <path d="M1.984 8.986A1 1 0 0 0 1 10v4a1 1 0 0 0 1 1h4a1 1 0 1 0 0-2H3v-3a1 1 0 0 0-1.016-1.014z" style="line-height:normal;font-variant-ligatures:normal;font-variant-position:normal;font-variant-caps:normal;font-variant-numeric:normal;font-variant-alternates:normal;font-feature-settings:normal;text-indent:0;text-align:start;text-decoration-line:none;text-decoration-style:solid;text-decoration-color:#000;text-transform:none;text-orientation:mixed;shape-padding:0;isolation:auto;mix-blend-mode:normal;marker:none" font-weight="400" font-family="sans-serif" white-space="normal" overflow="visible"/>
        <path d="M6.48 8.49a1 1 0 0 0-.687.303l-4.5 4.5a1 1 0 1 0 1.414 1.414l4.5-4.5A1 1 0 0 0 6.48 8.49z" style="line-height:normal;font-variant-ligatures:normal;font-variant-position:normal;font-variant-caps:normal;font-variant-numeric:normal;font-variant-alternates:normal;font-feature-settings:normal;text-indent:0;text-align:start;text-decoration-line:none;text-decoration-style:solid;text-decoration-color:#000;text-transform:none;text-orientation:mixed;shape-padding:0;isolation:auto;mix-blend-mode:normal;marker:none" font-weight="400" font-family="sans-serif" white-space="normal" overflow="visible"/>
        <path d="M1 14h1v1H1z" style="marker:none" overflow="visible"/>
        <path d="M10 1a1 1 0 1 0 0 2h3v3a1 1 0 1 0 2 0V2a1 1 0 0 0-1-1z" style="line-height:normal;font-variant-ligatures:normal;font-variant-position:normal;font-variant-caps:normal;font-variant-numeric:normal;font-variant-alternates:normal;font-feature-settings:normal;text-indent:0;text-align:start;text-decoration-line:none;text-decoration-style:solid;text-decoration-color:#000;text-transform:none;text-orientation:mixed;shape-padding:0;isolation:auto;mix-blend-mode:normal;marker:none" font-weight="400" font-family="sans-serif" white-space="normal" overflow="visible"/>
        <path d="M14 1h1v1h-1z" style="marker:none" overflow="visible"/>
        <path d="M13.984.99a1 1 0 0 0-.69.301l-4.5 4.469a1 1 0 1 0 1.411 1.418l4.5-4.469a1 1 0 0 0-.72-1.719z" style="line-height:normal;font-variant-ligatures:normal;font-variant-position:normal;font-variant-caps:normal;font-variant-numeric:normal;font-variant-alternates:normal;font-feature-settings:normal;text-indent:0;text-align:start;text-decoration-line:none;text-decoration-style:solid;text-decoration-color:#000;text-transform:none;text-orientation:mixed;shape-padding:0;isolation:auto;mix-blend-mode:normal;marker:none" font-weight="400" font-family="sans-serif" white-space="normal" overflow="visible"/>
        <path d="M1 9h1v1H1zM6 14h1v1H6zM14 6h1v1h-1zM9 1h1v1H9z" style="marker:none" overflow="visible"/>
    </g>
</svg>
